public/fonts/icons/trouble.svg

<?xml version="1.0" encoding="utf-8"?>

<!DOCTYPE svg PUBLIC "-//W3C//DTD SVG 1.1//EN" "http://www.w3.org/Graphics/SVG/1.1/DTD/svg11.dtd">
<svg version="1.1" xmlns="http://www.w3.org/2000/svg" xmlns:xlink="http://www.w3.org/1999/xlink" width="32" height="32" viewBox="0 0 32 32">
<g>
</g>
	<path d="M21.8 12.119l-1.544-1.544-4.175 4.175-4.256-4.256-1.706 1.706 4.256 4.256-4.175 4.175 1.544 1.544 4.175-4.175 4.256 4.256 1.706-1.706-4.256-4.256 4.175-4.175zM16 2.153c-7.853 0-14.222 6.369-14.222 14.222s6.369 14.222 14.222 14.222 14.222-6.369 14.222-14.222c0-7.853-6.369-14.222-14.222-14.222zM16 27.041c-5.891 0-10.666-4.775-10.666-10.666s4.775-10.666 10.666-10.666 10.666 4.775 10.666 10.666-4.775 10.666-10.666 10.666z" fill="#000000"></path>
</svg>

<svg xmlns="http://www.w3.org/2000/svg" width="32" height="32" viewBox="0 0 32 32"><title>Trouble</title><path d="M21.8 12.12l-1.544-1.545-4.175 4.175-4.255-4.256L10.12 12.2l4.255 4.256L10.2 20.63l1.544 1.545L15.92 18l4.255 4.256 1.706-1.706-4.255-4.256L21.8 12.12zM16 2.152c-7.853 0-14.222 6.37-14.222 14.222S8.148 30.597 16 30.597s14.222-6.37 14.222-14.222c0-7.853-6.37-14.222-14.222-14.222zm0 24.888c-5.89 0-10.666-4.774-10.666-10.665S10.11 5.71 16 5.71s10.666 4.774 10.666 10.665S21.89 27.04 16 27.04z"/></svg>
